site/static/images/icons/blog-icon.svg

<svg fill="none" height="32" viewBox="0 0 32 32" width="32" xmlns="http://www.w3.org/2000/svg"><circle cx="16" cy="16" fill="#f0f8ff" r="16"/><path clip-rule="evenodd" d="m19.3892 8.6052c.7688-.76885 2.0153-.76885 2.7842 0l1.2215 1.22151c.7688.76879.7688 2.01539 0 2.78419l-9.6859 9.6859c-.2366.2366-.5295.4089-.8512.5009l-3.65723 1.0449c-.29464.0842-.61174.002-.82842-.2147-.21667-.2167-.29884-.5337-.21467-.8283l1.04492-3.6573c.09192-.3216.2643-.6147.50089-.8513zm1.591 1.19324c-.1099-.10983-.288-.10983-.3978 0l-1.4204 1.42036 1.6193 1.6193 1.4204-1.4204c.1098-.1098.1098-.2879 0-.3977zm-1.3922 4.23286-1.6192-1.6192-7.0723 7.0722c-.0338.0338-.0584.0756-.0715.1216l-.6277 2.1969 2.1969-.6277c.0459-.0131.0878-.0377.1216-.0716z" fill="#0075ff" fill-rule="evenodd"/></svg>

<svg width="32" height="32" viewBox="0 0 32 32" fill="none" xmlns="http://www.w3.org/2000/svg">
<circle cx="16" cy="16" r="16" fill="#F0F8FF"/>
<path fill-rule="evenodd" clip-rule="evenodd" d="M19.3892 8.6052C20.158 7.83635 21.4045 7.83635 22.1734 8.6052L23.3949 9.82671C24.1637 10.5955 24.1637 11.8421 23.3949 12.6109L13.709 22.2968C13.4724 22.5334 13.1795 22.7057 12.8578 22.7977L9.20057 23.8426C8.90593 23.9268 8.58883 23.8446 8.37215 23.6279C8.15548 23.4112 8.07331 23.0942 8.15748 22.7996L9.2024 19.1423C9.29432 18.8207 9.4667 18.5276 9.70329 18.291L19.3892 8.6052ZM20.9802 9.79844C20.8703 9.68861 20.6922 9.68861 20.5824 9.79844L19.162 11.2188L20.7813 12.8381L22.2017 11.4177C22.3115 11.3079 22.3115 11.1298 22.2017 11.02L20.9802 9.79844ZM19.588 14.0313L17.9688 12.4121L10.8965 19.4843C10.8627 19.5181 10.8381 19.5599 10.825 19.6059L10.1973 21.8028L12.3942 21.1751C12.4401 21.162 12.482 21.1374 12.5158 21.1035L19.588 14.0313Z" fill="#0075ff"/>
</svg>
